!!!COM: Corelli, Arcangelo
!!!OPR: Sonata da chiesa
!!!OPS: 3
!!!ONM: 10
!!!OMV: 4
!!!OMD: Allegro
**kern	**fb	**kern	**kern
*part3	*part3	*part2	*part1
*staff3	*	*staff2	*staff1
*I"Violone & Organo	*	*I"Violino II	*I"Violino I
*clefF4	*	*clefG2	*clefG2
*k[]	*	*k[]	*k[]
*M12/8	*	*M12/8	*M12/8
*MM192	*	*MM192	*MM192
=1	=1	=1	=1
1.r	.	2.r	8eeL
.	.	.	8cc
.	.	.	8eeJ
.	.	.	8ddL
.	.	.	8b
.	.	.	8ddJ
.	.	8eeL	8ccL
.	.	8cc	8a
.	.	8eeJ	8ccJ
.	.	8ddL	8bL
.	.	8b	8g#X
.	.	8ddJ	8bJ
=2	=2	=2	=2
4.A	.	8ccL	8eeL
.	.	8a	8cc
.	.	8ccJ	8eeJ
4.E	7 #	8bL	8ddL
.	.	8g#X	8b
.	.	8bJ	8ddJ
4.AA	.	8eeL	8ccL
.	.	8cc	8a
.	.	8eeJ	8ccJ
4.r	.	8ddL	8bL
.	.	8b	8g#X
.	.	8ddJ	8bJ
=3	=3	=3	=3
2.r	.	8ccL	8eeL
.	.	8a	8cc
.	.	8ccJ	8eeJ
.	.	8bL	8ddL
.	.	8g#X	8b
.	.	8bJ	8ddJ
4.A	.	8eeL	8ccL
.	.	8cc	8a
.	.	8eeJ	8ccJ
4.E	7 #	8ddL	8bL
.	.	8b	8g#X
.	.	8ddJ	8bJ
=4	=4	=4	=4
4.AA	.	8ccL	4.a
.	.	8a	.
.	.	8ccJ	.
4.r	.	8bL	4.e
.	.	8g#X	.
.	.	8bJ	.
2.r	.	4.a	8aaL
.	.	.	8ff
.	.	.	8aaJ
.	.	4.e	8ggL
.	.	.	8ee
.	.	.	8ggJ
=5	=5	=5	=5
4.d	.	8aaL	8ffL
.	.	8ff	8dd
.	.	8aaJ	8ffJ
4.A	7 #	8ggL	8eeL
.	.	8ee	8cc#X
.	.	8ggJ	8eeJ
4.D	.	8ffL	8aaL
.	.	8dd	8ff
.	.	8ffJ	8aaJ
4.r	.	8eeL	8ggL
.	.	8cc#X	8ee
.	.	8eeJ	8ggJ
=6	=6	=6	=6
2.r	.	8aaL	8ffL
.	.	8ff	8dd
.	.	8aaJ	8ffJ
.	.	8ggL	8eeL
.	.	8ee	8cc#X
.	.	8ggJ	8eeJ
4.d	.	8ffL	8aaL
.	.	8dd	8ff
.	.	8ffJ	8aaJ
4.A	7 #	8eeL	8ggL
.	.	8cc#X	8ee
.	.	8eeJ	8ggJ
=7	=7	=7	=7
4.D	.	8%3a	8%3ff
4.E	#	8%3g#X	4%3ee
2.F	7	4%3a	.
.	6	.	8%3dd
=8	=8	=8	=8
1.E	#	1.g#X	1.ee
=9:|!|:	=9:|!|:	=9:|!|:	=9:|!|:
!	!	!	!LO:TX:a:t=12
1.r	.	2.r	8bbL
.	.	.	8gg
.	.	.	8bbJ
.	.	.	8aaL
.	.	.	8ff#X
.	.	.	8aaJ
.	.	8bbL	8ggL
.	.	8gg	8ee
.	.	8bbJ	8ggJ
.	.	8aaL	8ff#XiL
.	.	8ff#X	8dd#X
.	.	8aaJ	8ff#J
=10	=10	=10	=10
4.E	.	8ggL	8bbL
.	.	8ee	8gg
.	.	8ggJ	8bbJ
4.BB	7 #	8ff#XiL	8aaL
.	.	8dd#X	8ff#X
.	.	8ff#J	8aaJ
4.EE	.	8bbL	8ggL
.	.	8gg	8ee
.	.	8bbJ	8ggJ
4.r	.	8aaL	8ff#XiL
.	.	8ff#Xi	8dd#X
.	.	8aaJ	8ff#J
=11	=11	=11	=11
2.r	.	8ggL	8bbL
.	.	8ee	8gg
.	.	8ggJ	8bbJ
.	.	8ff#XiL	8aaL
.	.	8dd#X	8ff#X
.	.	8ff#J	8aaJ
4.E	.	8ggL	4.gg
.	.	8ee	.
.	.	8ggJ	.
4.C	6	8aaL	4.ee
.	.	8gg	.
.	.	8aaJ	.
=12	=12	=12	=12
4.BB	#	4.bb	8dd#XL
.	.	.	8cc#X
.	.	.	8bJ
4.G	6	4.r	[4.bb
4.c	7	[4.ee	8bbL]
.	.	.	8aa
.	.	.	8ggJ
4.F#X	7	8eeL]	[4.aa
.	.	8ff#X	.
.	.	8eeJ	.
=13	=13	=13	=13
4.B	7 #	4dd#X	8aaL]
.	.	.	8bb
.	.	8b	8aaJ
4.E	.	8bbL	8ggL
.	.	8aa	8ff#X
.	.	8ggJ	8eeJ
4.AA	#6\ #4\	4ff#X	8dd#XL
.	.	.	8b
.	7 5	8gg	8eeJ
4.BB	5 4	4.ff#Xi	8eeL
.	.	.	8ff#Xi
.	#	.	8dd#XiJ
=14	=14	=14	=14
2.EE	.	2.ee	2.ee
2.r	.	8eeL	8ggL
.	.	8cc	8ee
.	.	8ddJ	8ffJ
.	.	8eeL	8ggL
.	.	8dd	8ff
.	.	8ccJ	8eeJ
=15	=15	=15	=15
2.r	.	8ddL	8ffL
.	.	8b	8dd
.	.	8ccJ	8eeJ
.	.	8ddL	8ffL
.	.	8ee	8gg
.	.	8ddJ	8ffJ
4.c	.	4.cc	4.ee
4.G	.	4r	4r
.	.	8r	8r
=16	=16	=16	=16
4.C	.	8eeL	8ggL
.	.	8cc	8ee
.	.	8ddJ	8ffJ
4.r	.	8eeL	8ggL
.	.	8dd	8ff
.	.	8ccJ	8eeJ
2.r	.	8aL	8aaL
.	.	8cc#X	8ee
.	.	8ddJ	8ffJ
.	.	8eeL	8ggL
.	.	8dd	8ff
.	.	8cc#XiJ	8eeJ
=17	=17	=17	=17
4.d	.	4.dd	4.ff
4.A	#	4r	4r
.	.	8r	8r
4.D	#	8ff#XL	8aaL
.	.	8dd	8ff#X
.	.	8eeJ	8ggJ
4.r	.	8ff#L	8aaL
.	.	8ee	8gg
.	.	8ddJ	8ff#XiJ
=18	=18	=18	=18
2.r	.	8bL	8bbL
.	.	8dd#X	8ff#X
.	.	8eeJ	8ggJ
.	.	8ff#XL	8aaL
.	.	8ee	8gg
.	.	8dd#XiJ	8ff#XiJ
4.e	.	4.ee	4.gg
4.B	#	4r	4r
.	.	8r	8r
=19	=19	=19	=19
4.c	6	4.ee	8aaL
.	.	.	8bb
.	.	.	8aaJ
4.B	6	4.dd	8ggL
.	.	.	8aa
.	.	.	8ggJ
4.A	6	4.cc	8ffL
.	.	.	8aa
.	.	.	8ffJ
4.G	6	4.b	8eeL
.	.	.	8gg
.	.	.	8eeJ
=20	=20	=20	=20
4.F#X	#6\	8%3aa	(32%3dd#XLL
.	.	.	32%3cc#XJ
.	.	.	16%3bJ)
4.E	.	8%3gg	16%3.eeL
.	.	.	32%3eeJk
2.BB	5 4	4%3ff#X	8%3.ee
.	#	.	16%3dd#Xi
=21	=21	=21	=21
2.EE	.	2.ee	2.ee
2.r	.	2.r	8eeL
.	.	.	8cc
.	.	.	8eeJ
.	.	.	8ddL
.	.	.	8b
.	.	.	8ddJ
=22	=22	=22	=22
2.r	.	8eeL	8ccL
.	.	8cc	8a
.	.	8eeJ	8ccJ
.	.	8ddL	8bL
.	.	8b	8g#X
.	.	8ddJ	8bJ
4.A	.	8ccL	8eeL
.	.	8a	8cc
.	.	8ccJ	8eeJ
4.E	7 #	8bL	8ddL
.	.	8g#X	8b
.	.	8bJ	8ddJ
=23	=23	=23	=23
4.AA	.	8eeL	8ccL
.	.	8cc	8a
.	.	8eeJ	8ccJ
4.r	.	8ddL	8bL
.	.	8b	8g#X
.	.	8ddJ	8bJ
2.r	.	4.cc	8aaL
.	.	.	8ee
.	.	.	8aaJ
.	.	4.e	8ggL
.	.	.	8ee
.	.	.	8ggJ
=24	=24	=24	=24
4.d	.	8aaL	8ffL
.	.	8ff	8dd
.	.	8aaJ	8ffJ
4.A	7 #	8ggL	8eeL
.	.	8ee	8cc#X
.	.	8ggJ	8eeJ
4.D	.	8ffL	8aaL
.	.	8dd	8ff
.	.	8ffJ	8aaJ
4.r	.	8eeL	8ggL
.	.	8cc#X	8ee
.	.	8eeJ	8ggJ
=25	=25	=25	=25
2.r	.	8aaL	8ffL
.	.	8ff	8dd
.	.	8aaJ	8ffJ
.	.	8ggL	8eeL
.	.	8ee	8cc#X
.	.	8ggJ	8eeJ
4.D	.	8ffL	4.a
.	.	8gg	.
.	.	8ffJ	.
4.E	#	8eeL	4.g#X
.	.	8ff	.
.	.	8eeJ	.
=26	=26	=26	=26
4.F	6	8ddL	4.a
.	.	8ff	.
.	.	8ddJ	.
4.E	6	8ccL	4.g
.	.	8ee	.
.	.	8ccJ	.
4.D	-6	8b-XL	4.f
.	.	8dd	.
.	.	8b-J	.
4.C	6	8aL	4.e
.	.	8cc	.
.	.	8aJ	.
=27	=27	=27	=27
4.BB	#6\	32%3g#XLL	8%3dd
.	.	32%3f#XJ	.
.	.	16%3eJ	.
4.AA	.	16%3.aL	8%3cc
.	.	32%3aJk	.
2.E	5 4	8%3.a	4%3b
.	#	16%3g#Xi	.
=28	=28	=28	=28
2.AA	.	[4.a	[4.a
.	.	4a]	8aL]
!	!	!	!LO:TX:b:i:t=piano
.	.	.	8aa
.	.	8ee	8ggJ
4.D	.	4.a	8ffL
.	.	.	8gg
.	.	.	8ffJ
4.E	#	4.g#X	8eeL
.	.	.	8ff
.	.	.	8eeJ
=29	=29	=29	=29
4.F	6	4.a	8ddL
.	.	.	8ff
.	.	.	8ddJ
4.E	6	4.g	8ccL
.	.	.	8ee
.	.	.	8ccJ
4.D	#6\	4.f	8b-XL
.	.	.	8dd
.	.	.	8b-J
4.C	6	4.e	8aL
.	.	.	8cc
.	.	.	8aJ
=30	=30	=30	=30
4.BB	#6\	8%3dd	32%3g#XLL
.	.	.	32%3f#XJ
.	.	.	16%3eJ
4.AA	.	8%3cc	16%3.aL
.	.	.	32%3aJk
2.E	5 4	4%3b	8%3.a
.	#	.	16%3g#Xi
=31	=31	=31	=31
1.AA	.	1.a	1.a
=:|!	=:|!	=:|!	=:|!
*-	*-	*-	*-
!!!system-decoration: [{s1,s2},s3]
!!!YEM: CC BY-NC-SA 4.0; CCARH; DCML
!!!RDF**kern: i = editorial accidental